src/assets/spades_10.svg

<?xml version="1.0" encoding="UTF-8"?>
<svg xmlns="http://www.w3.org/2000/svg" xmlns:xlink="http://www.w3.org/1999/xlink" width="99px" height="140px" viewBox="0 0 99 140" version="1.1">
<g id="surface1">
<path style="fill-rule:nonzero;fill:rgb(100%,100%,100%);fill-opacity:1;stroke-width:0.755906;stroke-linecap:butt;stroke-linejoin:miter;stroke:rgb(50.196078%,50.196078%,50.196078%);stroke-opacity:1;stroke-miterlimit:4;" d="M 9.297585 719.743103 L 224.702415 719.743103 C 229.632812 719.743103 233.621449 723.747651 233.621449 728.681329 L 233.621449 1043.042991 C 233.621449 1047.976669 229.632812 1051.981217 224.702415 1051.981217 L 9.297585 1051.981217 C 4.367188 1051.981217 0.378551 1047.976669 0.378551 1043.042991 L 0.378551 728.681329 C 0.378551 723.747651 4.367188 719.743103 9.297585 719.743103 Z M 9.297585 719.743103 " transform="matrix(0.423077,0,0,0.42042,0,-302.434542)"/>
<path style=" stroke:none;fill-rule:nonzero;fill:rgb(0%,0%,0%);fill-opacity:1;" d="M 19.339844 67.882812 C 19.339844 67.179688 19.300781 66.675781 19.300781 65.972656 C 20.757812 65.972656 22.339844 65.972656 23.796875 65.972656 C 23.796875 64.304688 23.796875 64.1875 23.796875 62.519531 C 20.949219 62.613281 17.867188 62.820312 15.199219 61.652344 C 13.136719 60.527344 12.566406 57.90625 12.984375 55.753906 C 13.339844 53.320312 14.699219 51.164062 16.472656 49.5 C 18.78125 47.046875 21.726562 45.386719 24.800781 44.054688 C 27.9375 45.410156 30.949219 47.121094 33.285156 49.640625 C 35.394531 51.609375 36.796875 54.386719 36.753906 57.296875 C 36.796875 59.398438 35.488281 61.617188 33.328125 62.078125 C 30.914062 62.742188 28.46875 62.625 25.988281 62.519531 C 25.988281 64.1875 25.988281 64.304688 25.988281 65.972656 C 27.445312 65.972656 28.785156 65.972656 30.242188 65.972656 C 30.242188 66.675781 30.28125 67.179688 30.28125 67.882812 C 26.941406 67.859375 22.945312 67.859375 19.339844 67.882812 Z M 19.339844 67.882812 "/>
<path style=" stroke:none;fill-rule:nonzero;fill:rgb(0%,0%,0%);fill-opacity:1;" d="M 7.277344 14.769531 C 7.277344 14.90625 7.265625 15.027344 7.242188 15.132812 C 7.171875 15.175781 7.097656 15.199219 7.015625 15.199219 L 3.828125 15.199219 C 3.636719 15.199219 3.542969 15.007812 3.542969 14.621094 C 3.542969 14.554688 3.546875 14.453125 3.550781 14.308594 C 3.558594 14.160156 3.558594 14.046875 3.558594 13.972656 C 3.558594 13.609375 3.644531 13.425781 3.808594 13.425781 L 4.886719 13.425781 L 4.886719 5.816406 L 3.574219 5.816406 C 3.386719 5.816406 3.296875 5.621094 3.296875 5.238281 C 3.296875 5.15625 3.300781 5.023438 3.308594 4.84375 C 3.320312 4.65625 3.328125 4.515625 3.328125 4.421875 C 3.328125 4.234375 3.417969 4.144531 3.601562 4.144531 C 3.65625 4.144531 3.753906 4.152344 3.898438 4.175781 C 4.039062 4.191406 4.152344 4.199219 4.234375 4.199219 C 4.695312 4.199219 4.972656 3.894531 5.070312 3.285156 L 5.898438 3.285156 L 5.898438 13.425781 C 6.089844 13.425781 6.296875 13.417969 6.519531 13.394531 C 6.742188 13.367188 6.878906 13.355469 6.921875 13.355469 C 7.085938 13.355469 7.191406 13.4375 7.230469 13.609375 C 7.261719 13.757812 7.277344 14.144531 7.277344 14.769531 Z M 7.277344 14.769531 "/>
<path style=" stroke:none;fill-rule:nonzero;fill:rgb(0%,0%,0%);fill-opacity:1;" d="M 11.261719 9.382812 C 11.261719 13.261719 10.601562 15.199219 9.285156 15.199219 C 7.949219 15.199219 7.277344 13.25 7.277344 9.351562 C 7.277344 5.308594 7.960938 3.285156 9.324219 3.285156 C 10.617188 3.285156 11.261719 5.320312 11.261719 9.382812 Z M 10.222656 9.214844 C 10.222656 6.4375 9.90625 5.046875 9.269531 5.046875 C 8.894531 5.046875 8.632812 5.597656 8.472656 6.695312 C 8.375 7.390625 8.324219 8.253906 8.324219 9.285156 C 8.324219 12.0625 8.640625 13.453125 9.269531 13.453125 C 9.644531 13.453125 9.910156 12.90625 10.070312 11.8125 C 10.171875 11.109375 10.222656 10.242188 10.222656 9.214844 Z M 10.222656 9.214844 "/>
<path style=" stroke:none;fill-rule:nonzero;fill:rgb(0%,0%,0%);fill-opacity:1;" d="M 91.722656 125.230469 C 91.722656 125.09375 91.734375 124.972656 91.757812 124.867188 C 91.828125 124.824219 91.902344 124.800781 91.984375 124.800781 L 95.171875 124.800781 C 95.363281 124.800781 95.457031 124.992188 95.457031 125.378906 C 95.457031 125.445312 95.453125 125.546875 95.449219 125.691406 C 95.441406 125.839844 95.441406 125.953125 95.441406 126.027344 C 95.441406 126.390625 95.355469 126.574219 95.191406 126.574219 L 94.113281 126.574219 L 94.113281 134.183594 L 95.425781 134.183594 C 95.613281 134.183594 95.703125 134.378906 95.703125 134.761719 C 95.703125 134.84375 95.699219 134.976562 95.691406 135.15625 C 95.679688 135.34375 95.671875 135.484375 95.671875 135.578125 C 95.671875 135.765625 95.582031 135.859375 95.398438 135.859375 C 95.34375 135.859375 95.246094 135.847656 95.101562 135.824219 C 94.960938 135.808594 94.847656 135.800781 94.765625 135.800781 C 94.304688 135.800781 94.027344 136.105469 93.929688 136.714844 L 93.101562 136.714844 L 93.101562 126.574219 C 92.910156 126.574219 92.703125 126.582031 92.480469 126.605469 C 92.257812 126.632812 92.121094 126.648438 92.078125 126.648438 C 91.914062 126.648438 91.808594 126.5625 91.769531 126.390625 C 91.738281 126.242188 91.722656 125.855469 91.722656 125.230469 Z M 91.722656 125.230469 "/>
<path style=" stroke:none;fill-rule:nonzero;fill:rgb(0%,0%,0%);fill-opacity:1;" d="M 87.738281 130.617188 C 87.738281 126.738281 88.398438 124.800781 89.714844 124.800781 C 91.050781 124.800781 91.722656 126.75 91.722656 130.648438 C 91.722656 134.691406 91.039062 136.714844 89.675781 136.714844 C 88.382812 136.714844 87.738281 134.679688 87.738281 130.617188 Z M 88.777344 130.785156 C 88.777344 133.5625 89.09375 134.953125 89.730469 134.953125 C 90.105469 134.953125 90.367188 134.402344 90.527344 133.304688 C 90.625 132.609375 90.675781 131.746094 90.675781 130.714844 C 90.675781 127.9375 90.359375 126.546875 89.730469 126.546875 C 89.355469 126.546875 89.089844 127.09375 88.929688 128.1875 C 88.828125 128.890625 88.777344 129.757812 88.777344 130.785156 Z M 88.777344 130.785156 "/>
<path style=" stroke:none;fill-rule:nonzero;fill:rgb(0%,0%,0%);fill-opacity:1;" d="M 19.339844 72.117188 C 19.339844 72.820312 19.300781 73.324219 19.300781 74.027344 C 20.757812 74.027344 22.339844 74.027344 23.796875 74.027344 C 23.796875 75.695312 23.796875 75.8125 23.796875 77.480469 C 20.949219 77.386719 17.867188 77.179688 15.199219 78.347656 C 13.136719 79.472656 12.566406 82.09375 12.984375 84.246094 C 13.339844 86.679688 14.699219 88.835938 16.472656 90.5 C 18.78125 92.953125 21.726562 94.613281 24.800781 95.945312 C 27.9375 94.589844 30.949219 92.878906 33.285156 90.359375 C 35.394531 88.390625 36.796875 85.613281 36.753906 82.703125 C 36.796875 80.601562 35.488281 78.382812 33.328125 77.921875 C 30.914062 77.257812 28.46875 77.375 25.988281 77.480469 C 25.988281 75.8125 25.988281 75.695312 25.988281 74.027344 C 27.445312 74.027344 28.785156 74.027344 30.242188 74.027344 C 30.242188 73.324219 30.28125 72.820312 30.28125 72.117188 C 26.941406 72.140625 22.945312 72.140625 19.339844 72.117188 Z M 19.339844 72.117188 "/>
<path style=" stroke:none;fill-rule:nonzero;fill:rgb(0%,0%,0%);fill-opacity:1;" d="M 68.730469 67.882812 C 68.730469 67.179688 68.691406 66.675781 68.691406 65.972656 C 70.148438 65.972656 71.730469 65.972656 73.1875 65.972656 C 73.1875 64.304688 73.1875 64.1875 73.1875 62.519531 C 70.339844 62.613281 67.257812 62.820312 64.589844 61.652344 C 62.527344 60.527344 61.957031 57.90625 62.375 55.753906 C 62.730469 53.320312 64.089844 51.164062 65.863281 49.5 C 68.171875 47.046875 71.117188 45.386719 74.191406 44.054688 C 77.328125 45.410156 80.339844 47.121094 82.675781 49.640625 C 84.78125 51.609375 86.1875 54.386719 86.144531 57.296875 C 86.1875 59.398438 84.878906 61.617188 82.71875 62.078125 C 80.304688 62.742188 77.859375 62.625 75.378906 62.519531 C 75.378906 64.1875 75.378906 64.304688 75.378906 65.972656 C 76.835938 65.972656 78.171875 65.972656 79.632812 65.972656 C 79.632812 66.675781 79.671875 67.179688 79.671875 67.882812 C 76.332031 67.859375 72.335938 67.859375 68.730469 67.882812 Z M 68.730469 67.882812 "/>
<path style=" stroke:none;fill-rule:nonzero;fill:rgb(0%,0%,0%);fill-opacity:1;" d="M 68.730469 39.820312 C 68.730469 39.117188 68.691406 38.613281 68.691406 37.910156 C 70.148438 37.910156 71.730469 37.910156 73.1875 37.910156 C 73.1875 36.242188 73.1875 36.125 73.1875 34.457031 C 70.339844 34.550781 67.257812 34.757812 64.589844 33.589844 C 62.527344 32.464844 61.957031 29.84375 62.375 27.691406 C 62.730469 25.257812 64.089844 23.101562 65.863281 21.4375 C 68.171875 18.984375 71.117188 17.328125 74.191406 15.992188 C 77.328125 17.347656 80.339844 19.058594 82.675781 21.578125 C 84.78125 23.546875 86.1875 26.324219 86.144531 29.234375 C 86.1875 31.335938 84.878906 33.554688 82.71875 34.015625 C 80.304688 34.679688 77.859375 34.5625 75.378906 34.457031 C 75.378906 36.125 75.378906 36.242188 75.378906 37.910156 C 76.835938 37.910156 78.171875 37.910156 79.632812 37.910156 C 79.632812 38.613281 79.671875 39.117188 79.671875 39.820312 C 76.332031 39.796875 72.335938 39.796875 68.730469 39.820312 Z M 68.730469 39.820312 "/>
<path style=" stroke:none;fill-rule:nonzero;fill:rgb(0%,0%,0%);fill-opacity:1;" d="M 19.339844 39.820312 C 19.339844 39.117188 19.300781 38.613281 19.300781 37.910156 C 20.757812 37.910156 22.339844 37.910156 23.796875 37.910156 C 23.796875 36.242188 23.796875 36.125 23.796875 34.457031 C 20.949219 34.550781 17.867188 34.757812 15.199219 33.589844 C 13.136719 32.464844 12.566406 29.84375 12.984375 27.691406 C 13.339844 25.257812 14.699219 23.101562 16.472656 21.4375 C 18.78125 18.984375 21.726562 17.328125 24.800781 15.992188 C 27.9375 17.347656 30.949219 19.058594 33.285156 21.578125 C 35.394531 23.546875 36.796875 26.324219 36.753906 29.234375 C 36.796875 31.335938 35.488281 33.554688 33.328125 34.015625 C 30.914062 34.679688 28.46875 34.5625 25.988281 34.457031 C 25.988281 36.125 25.988281 36.242188 25.988281 37.910156 C 27.445312 37.910156 28.785156 37.910156 30.242188 37.910156 C 30.242188 38.613281 30.28125 39.117188 30.28125 39.820312 C 26.941406 39.796875 22.945312 39.796875 19.339844 39.820312 Z M 19.339844 39.820312 "/>
<path style=" stroke:none;fill-rule:nonzero;fill:rgb(0%,0%,0%);fill-opacity:1;" d="M 44.035156 53.851562 C 44.035156 53.148438 43.996094 52.644531 43.996094 51.941406 C 45.453125 51.941406 47.035156 51.941406 48.492188 51.941406 C 48.492188 50.273438 48.492188 50.15625 48.492188 48.488281 C 45.644531 48.582031 42.5625 48.789062 39.894531 47.621094 C 37.832031 46.496094 37.261719 43.875 37.679688 41.722656 C 38.035156 39.289062 39.394531 37.132812 41.167969 35.46875 C 43.476562 33.015625 46.421875 31.355469 49.496094 30.023438 C 52.632812 31.378906 55.644531 33.089844 57.980469 35.609375 C 60.089844 37.578125 61.492188 40.355469 61.449219 43.265625 C 61.492188 45.367188 60.183594 47.585938 58.023438 48.046875 C 55.609375 48.710938 53.164062 48.59375 50.683594 48.488281 C 50.683594 50.15625 50.683594 50.273438 50.683594 51.941406 C 52.140625 51.941406 53.480469 51.941406 54.9375 51.941406 C 54.9375 52.644531 54.976562 53.148438 54.976562 53.851562 C 51.636719 53.828125 47.640625 53.828125 44.035156 53.851562 Z M 44.035156 53.851562 "/>
<path style=" stroke:none;fill-rule:nonzero;fill:rgb(0%,0%,0%);fill-opacity:1;" d="M 5.457031 25.789062 C 5.457031 25.554688 5.445312 25.386719 5.445312 25.152344 C 5.929688 25.152344 6.457031 25.152344 6.945312 25.152344 C 6.945312 24.597656 6.945312 24.558594 6.945312 24 C 5.996094 24.03125 4.96875 24.101562 4.078125 23.710938 C 3.390625 23.335938 3.199219 22.464844 3.339844 21.746094 C 3.457031 20.933594 3.910156 20.214844 4.503906 19.660156 C 5.273438 18.84375 6.253906 18.289062 7.277344 17.847656 C 8.324219 18.296875 9.328125 18.867188 10.105469 19.707031 C 10.808594 20.363281 11.277344 21.289062 11.261719 22.261719 C 11.277344 22.960938 10.839844 23.699219 10.121094 23.851562 C 9.316406 24.074219 8.5 24.035156 7.671875 24 C 7.671875 24.558594 7.671875 24.597656 7.671875 25.152344 C 8.160156 25.152344 8.605469 25.152344 9.09375 25.152344 C 9.09375 25.386719 9.105469 25.554688 9.105469 25.789062 C 7.992188 25.78125 6.660156 25.78125 5.457031 25.789062 Z M 5.457031 25.789062 "/>
<path style=" stroke:none;fill-rule:nonzero;fill:rgb(0%,0%,0%);fill-opacity:1;" d="M 19.339844 100.179688 C 19.339844 100.882812 19.300781 101.386719 19.300781 102.089844 C 20.757812 102.089844 22.339844 102.089844 23.796875 102.089844 C 23.796875 103.757812 23.796875 103.875 23.796875 105.542969 C 20.949219 105.449219 17.867188 105.242188 15.199219 106.410156 C 13.136719 107.535156 12.566406 110.15625 12.984375 112.308594 C 13.339844 114.742188 14.699219 116.898438 16.472656 118.5625 C 18.78125 121.015625 21.726562 122.671875 24.800781 124.007812 C 27.9375 122.652344 30.949219 120.941406 33.285156 118.421875 C 35.394531 116.453125 36.796875 113.675781 36.753906 110.765625 C 36.796875 108.664062 35.488281 106.445312 33.328125 105.984375 C 30.914062 105.320312 28.46875 105.4375 25.988281 105.542969 C 25.988281 103.875 25.988281 103.757812 25.988281 102.089844 C 27.445312 102.089844 28.785156 102.089844 30.242188 102.089844 C 30.242188 101.386719 30.28125 100.882812 30.28125 100.179688 C 26.941406 100.203125 22.945312 100.203125 19.339844 100.179688 Z M 19.339844 100.179688 "/>
<path style=" stroke:none;fill-rule:nonzero;fill:rgb(0%,0%,0%);fill-opacity:1;" d="M 44.035156 86.148438 C 44.035156 86.851562 43.996094 87.355469 43.996094 88.058594 C 45.453125 88.058594 47.035156 88.058594 48.492188 88.058594 C 48.492188 89.726562 48.492188 89.84375 48.492188 91.511719 C 45.644531 91.417969 42.5625 91.210938 39.894531 92.378906 C 37.832031 93.503906 37.261719 96.125 37.679688 98.277344 C 38.035156 100.710938 39.394531 102.867188 41.167969 104.53125 C 43.476562 106.984375 46.421875 108.644531 49.496094 109.976562 C 52.632812 108.621094 55.644531 106.910156 57.980469 104.390625 C 60.089844 102.421875 61.492188 99.644531 61.449219 96.734375 C 61.492188 94.632812 60.183594 92.414062 58.023438 91.953125 C 55.609375 91.289062 53.164062 91.40625 50.683594 91.511719 C 50.683594 89.84375 50.683594 89.726562 50.683594 88.058594 C 52.140625 88.058594 53.480469 88.058594 54.9375 88.058594 C 54.9375 87.355469 54.976562 86.851562 54.976562 86.148438 C 51.636719 86.171875 47.640625 86.171875 44.035156 86.148438 Z M 44.035156 86.148438 "/>
<path style=" stroke:none;fill-rule:nonzero;fill:rgb(0%,0%,0%);fill-opacity:1;" d="M 68.730469 100.179688 C 68.730469 100.882812 68.691406 101.386719 68.691406 102.089844 C 70.148438 102.089844 71.730469 102.089844 73.1875 102.089844 C 73.1875 103.757812 73.1875 103.875 73.1875 105.542969 C 70.339844 105.449219 67.257812 105.242188 64.589844 106.410156 C 62.527344 107.535156 61.957031 110.15625 62.375 112.308594 C 62.730469 114.742188 64.089844 116.898438 65.863281 118.5625 C 68.171875 121.015625 71.117188 122.671875 74.191406 124.007812 C 77.328125 122.652344 80.339844 120.941406 82.675781 118.421875 C 84.78125 116.453125 86.1875 113.675781 86.144531 110.765625 C 86.1875 108.664062 84.878906 106.445312 82.71875 105.984375 C 80.304688 105.320312 77.859375 105.4375 75.378906 105.542969 C 75.378906 103.875 75.378906 103.757812 75.378906 102.089844 C 76.835938 102.089844 78.171875 102.089844 79.632812 102.089844 C 79.632812 101.386719 79.671875 100.882812 79.671875 100.179688 C 76.332031 100.203125 72.335938 100.203125 68.730469 100.179688 Z M 68.730469 100.179688 "/>
<path style=" stroke:none;fill-rule:nonzero;fill:rgb(0%,0%,0%);fill-opacity:1;" d="M 68.730469 72.117188 C 68.730469 72.820312 68.691406 73.324219 68.691406 74.027344 C 70.148438 74.027344 71.730469 74.027344 73.1875 74.027344 C 73.1875 75.695312 73.1875 75.8125 73.1875 77.480469 C 70.339844 77.386719 67.257812 77.179688 64.589844 78.347656 C 62.527344 79.472656 61.957031 82.09375 62.375 84.246094 C 62.730469 86.679688 64.089844 88.835938 65.863281 90.5 C 68.171875 92.953125 71.117188 94.613281 74.191406 95.945312 C 77.328125 94.589844 80.339844 92.878906 82.675781 90.359375 C 84.78125 88.390625 86.1875 85.613281 86.144531 82.703125 C 86.1875 80.601562 84.878906 78.382812 82.71875 77.921875 C 80.304688 77.257812 77.859375 77.375 75.378906 77.480469 C 75.378906 75.8125 75.378906 75.695312 75.378906 74.027344 C 76.835938 74.027344 78.171875 74.027344 79.632812 74.027344 C 79.632812 73.324219 79.671875 72.820312 79.671875 72.117188 C 76.332031 72.140625 72.335938 72.140625 68.730469 72.117188 Z M 68.730469 72.117188 "/>
<path style=" stroke:none;fill-rule:nonzero;fill:rgb(0%,0%,0%);fill-opacity:1;" d="M 89.898438 114.210938 C 89.898438 114.445312 89.886719 114.613281 89.886719 114.847656 C 90.371094 114.847656 90.898438 114.847656 91.386719 114.847656 C 91.386719 115.402344 91.386719 115.441406 91.386719 116 C 90.4375 115.96875 89.410156 115.898438 88.519531 116.289062 C 87.832031 116.664062 87.640625 117.535156 87.78125 118.253906 C 87.898438 119.066406 88.351562 119.785156 88.945312 120.339844 C 89.714844 121.15625 90.695312 121.710938 91.71875 122.152344 C 92.765625 121.703125 93.769531 121.132812 94.546875 120.292969 C 95.25 119.636719 95.71875 118.710938 95.703125 117.738281 C 95.71875 117.039062 95.28125 116.300781 94.5625 116.148438 C 93.757812 115.925781 92.941406 115.964844 92.113281 116 C 92.113281 115.441406 92.113281 115.402344 92.113281 114.847656 C 92.601562 114.847656 93.046875 114.847656 93.535156 114.847656 C 93.535156 114.613281 93.546875 114.445312 93.546875 114.210938 C 92.433594 114.21875 91.101562 114.21875 89.898438 114.210938 Z M 89.898438 114.210938 "/>
</g>
</svg>

<svg xmlns="http://www.w3.org/2000/svg" width="99" height="140"><path d="M9.298 719.743h215.404c4.93 0 8.92 4.005 8.92 8.938v314.362c0 4.934-3.99 8.938-8.92 8.938H9.298c-4.93 0-8.92-4.004-8.92-8.938V728.681c0-4.933 3.99-8.938 8.92-8.938Zm0 0" style="fill-rule:nonzero;fill:#fff;fill-opacity:1;stroke-width:.755906;stroke-linecap:butt;stroke-linejoin:miter;stroke:gray;stroke-opacity:1;stroke-miterlimit:4" transform="matrix(.42308 0 0 .42042 0 -302.435)"/><path d="M19.34 67.883c0-.703-.04-1.207-.04-1.91h4.497V62.52c-2.848.093-5.93.3-8.598-.868-2.062-1.125-2.633-3.746-2.215-5.898.356-2.434 1.715-4.59 3.489-6.254 2.308-2.453 5.254-4.113 8.328-5.445 3.137 1.355 6.148 3.066 8.484 5.586 2.11 1.968 3.512 4.746 3.469 7.656.043 2.101-1.266 4.32-3.426 4.781-2.414.664-4.86.547-7.34.442v3.453h4.254c0 .703.04 1.207.04 1.91-3.34-.024-7.337-.024-10.942 0ZM7.277 14.77c0 .136-.011.257-.035.363a.426.426 0 0 1-.226.066H3.828c-.191 0-.285-.191-.285-.578 0-.066.004-.168.008-.312.008-.149.008-.262.008-.336 0-.364.086-.547.25-.547h1.078v-7.61H3.574c-.187 0-.277-.195-.277-.578 0-.082.004-.215.012-.394.011-.188.02-.328.02-.422 0-.188.089-.277.273-.277.054 0 .152.007.296.03.141.016.254.024.336.024.461 0 .739-.304.836-.914h.828v10.14c.192 0 .399-.007.622-.03.222-.028.359-.04.402-.04.164 0 .27.082.308.254.032.149.047.536.047 1.16ZM11.262 9.383c0 3.879-.66 5.816-1.977 5.816-1.336 0-2.008-1.949-2.008-5.847 0-4.043.684-6.067 2.047-6.067 1.293 0 1.938 2.035 1.938 6.098Zm-1.04-.168c0-2.777-.316-4.168-.952-4.168-.375 0-.637.55-.797 1.648-.098.696-.149 1.559-.149 2.59 0 2.777.317 4.168.946 4.168.375 0 .64-.547.8-1.64.102-.704.153-1.57.153-2.598ZM91.723 125.23c0-.136.011-.257.035-.363a.426.426 0 0 1 .226-.066h3.188c.191 0 .285.191.285.578 0 .066-.004.168-.008.312-.008.149-.008.262-.008.336 0 .364-.086.547-.25.547h-1.078v7.61h1.313c.187 0 .277.195.277.578 0 .082-.004.215-.012.394-.011.188-.02.328-.02.422 0 .188-.089.281-.273.281-.054 0-.152-.011-.296-.035a3.229 3.229 0 0 0-.336-.023c-.461 0-.739.304-.836.914h-.828v-10.14c-.192 0-.399.007-.622.03-.222.028-.359.043-.402.043-.164 0-.27-.085-.308-.257-.032-.149-.047-.536-.047-1.16ZM87.738 130.617c0-3.879.66-5.816 1.977-5.816 1.336 0 2.008 1.949 2.008 5.847 0 4.043-.684 6.067-2.047 6.067-1.293 0-1.938-2.035-1.938-6.098Zm1.04.168c0 2.778.316 4.168.952 4.168.375 0 .637-.55.797-1.648.098-.696.149-1.559.149-2.59 0-2.778-.317-4.168-.946-4.168-.375 0-.64.547-.8 1.64-.102.704-.153 1.57-.153 2.598ZM19.34 72.117c0 .703-.04 1.207-.04 1.91h4.497v3.453c-2.848-.093-5.93-.3-8.598.868-2.062 1.125-2.633 3.746-2.215 5.898.356 2.434 1.715 4.59 3.489 6.254 2.308 2.453 5.254 4.113 8.328 5.445 3.137-1.355 6.148-3.066 8.484-5.586 2.11-1.968 3.512-4.746 3.469-7.656.043-2.101-1.266-4.32-3.426-4.781-2.414-.664-4.86-.547-7.34-.442v-3.453h4.254c0-.703.04-1.207.04-1.91-3.34.024-7.337.024-10.942 0ZM68.73 67.883c0-.703-.039-1.207-.039-1.91h4.496V62.52c-2.847.093-5.93.3-8.597-.868-2.063-1.125-2.633-3.746-2.215-5.898.355-2.434 1.715-4.59 3.488-6.254 2.309-2.453 5.254-4.113 8.328-5.445 3.137 1.355 6.149 3.066 8.485 5.586 2.105 1.968 3.511 4.746 3.469 7.656.043 2.101-1.266 4.32-3.426 4.781-2.414.664-4.86.547-7.34.442v3.453h4.254c0 .703.039 1.207.039 1.91-3.34-.024-7.336-.024-10.942 0ZM68.73 39.82c0-.703-.039-1.207-.039-1.91h4.496v-3.453c-2.847.094-5.93.3-8.597-.867-2.063-1.125-2.633-3.746-2.215-5.899.355-2.433 1.715-4.59 3.488-6.253 2.309-2.454 5.254-4.11 8.328-5.446 3.137 1.356 6.149 3.067 8.485 5.586 2.105 1.969 3.511 4.746 3.469 7.656.043 2.102-1.266 4.32-3.426 4.782-2.414.664-4.86.547-7.34.441v3.453h4.254c0 .703.039 1.207.039 1.91-3.34-.023-7.336-.023-10.942 0ZM19.34 39.82c0-.703-.04-1.207-.04-1.91h4.497v-3.453c-2.848.094-5.93.3-8.598-.867-2.062-1.125-2.633-3.746-2.215-5.899.356-2.433 1.715-4.59 3.489-6.253 2.308-2.454 5.254-4.11 8.328-5.446 3.137 1.356 6.148 3.067 8.484 5.586 2.11 1.969 3.512 4.746 3.469 7.656.043 2.102-1.266 4.32-3.426 4.782-2.414.664-4.86.547-7.34.441v3.453h4.254c0 .703.04 1.207.04 1.91-3.34-.023-7.337-.023-10.942 0ZM44.035 53.852c0-.704-.039-1.207-.039-1.91h4.496v-3.454c-2.847.094-5.93.301-8.597-.867-2.063-1.125-2.633-3.746-2.215-5.898.355-2.434 1.715-4.59 3.488-6.254 2.309-2.453 5.254-4.114 8.328-5.446 3.137 1.356 6.149 3.067 8.484 5.586 2.11 1.97 3.512 4.746 3.47 7.657.042 2.101-1.266 4.32-3.427 4.78-2.414.665-4.859.548-7.34.442v3.453h4.255c0 .704.039 1.207.039 1.91-3.34-.023-7.336-.023-10.942 0ZM5.457 25.79c0-.235-.012-.403-.012-.638h1.5V24c-.949.031-1.976.102-2.867-.29-.687-.374-.879-1.245-.738-1.964.117-.812.57-1.531 1.164-2.086.77-.816 1.75-1.37 2.773-1.812 1.047.449 2.051 1.02 2.828 1.859.704.656 1.172 1.582 1.157 2.555.015.699-.422 1.437-1.14 1.59-.806.222-1.622.183-2.45.148v1.152h1.422c0 .235.011.403.011.637a283.894 283.894 0 0 0-3.648 0ZM19.34 100.18c0 .703-.04 1.207-.04 1.91h4.497v3.453c-2.848-.094-5.93-.3-8.598.867-2.062 1.125-2.633 3.746-2.215 5.899.356 2.433 1.715 4.59 3.489 6.254 2.308 2.453 5.254 4.109 8.328 5.445 3.137-1.356 6.148-3.067 8.484-5.586 2.11-1.969 3.512-4.746 3.469-7.656.043-2.102-1.266-4.32-3.426-4.782-2.414-.664-4.86-.546-7.34-.441v-3.453h4.254c0-.703.04-1.207.04-1.91-3.34.023-7.337.023-10.942 0ZM44.035 86.148c0 .704-.039 1.207-.039 1.91h4.496v3.454c-2.847-.094-5.93-.301-8.597.867-2.063 1.125-2.633 3.746-2.215 5.898.355 2.434 1.715 4.59 3.488 6.254 2.309 2.453 5.254 4.114 8.328 5.446 3.137-1.356 6.149-3.067 8.484-5.586 2.11-1.97 3.512-4.746 3.47-7.657.042-2.101-1.266-4.32-3.427-4.78-2.414-.665-4.859-.548-7.34-.442v-3.453h4.255c0-.704.039-1.207.039-1.91-3.34.023-7.336.023-10.942 0ZM68.73 100.18c0 .703-.039 1.207-.039 1.91h4.496v3.453c-2.847-.094-5.93-.3-8.597.867-2.063 1.125-2.633 3.746-2.215 5.899.355 2.433 1.715 4.59 3.488 6.254 2.309 2.453 5.254 4.109 8.328 5.445 3.137-1.356 6.149-3.067 8.485-5.586 2.105-1.969 3.511-4.746 3.469-7.656.043-2.102-1.266-4.32-3.426-4.782-2.414-.664-4.86-.546-7.34-.441v-3.453h4.254c0-.703.039-1.207.039-1.91-3.34.023-7.336.023-10.942 0ZM68.73 72.117c0 .703-.039 1.207-.039 1.91h4.496v3.453c-2.847-.093-5.93-.3-8.597.868-2.063 1.125-2.633 3.746-2.215 5.898.355 2.434 1.715 4.59 3.488 6.254 2.309 2.453 5.254 4.113 8.328 5.445 3.137-1.355 6.149-3.066 8.485-5.586 2.105-1.968 3.511-4.746 3.469-7.656.043-2.101-1.266-4.32-3.426-4.781-2.414-.664-4.86-.547-7.34-.442v-3.453h4.254c0-.703.039-1.207.039-1.91-3.34.024-7.336.024-10.942 0ZM89.898 114.21c0 .235-.011.403-.011.638h1.5V116c-.95-.031-1.977-.102-2.867.29-.688.374-.88 1.245-.739 1.964.117.812.57 1.531 1.164 2.086.77.816 1.75 1.37 2.774 1.812 1.047-.449 2.05-1.02 2.828-1.859.703-.656 1.172-1.582 1.156-2.555.016-.699-.422-1.437-1.14-1.59-.805-.222-1.622-.183-2.45-.148v-1.152h1.422c0-.235.012-.403.012-.637-1.113.008-2.445.008-3.649 0Zm0 0" style="stroke:none;fill-rule:nonzero;fill:#000;fill-opacity:1"/></svg>
